svg/fluentui-system-icons/ic_fluent_edit_24_regular.svg

<svg width="24" height="24" viewBox="0 0 24 24" fill="none" xmlns="http://www.w3.org/2000/svg">
<path d="M20.9519 3.0481C19.5543 1.65058 17.2885 1.65064 15.8911 3.04825L3.94103 14.9997C3.5347 15.4061 3.2491 15.9172 3.116 16.4762L2.02041 21.0777C1.96009 21.3311 2.03552 21.5976 2.21968 21.7817C2.40385 21.9659 2.67037 22.0413 2.92373 21.981L7.52498 20.8855C8.08418 20.7523 8.59546 20.4666 9.00191 20.0601L20.952 8.10861C22.3493 6.71112 22.3493 4.4455 20.9519 3.0481ZM16.9518 4.10884C17.7634 3.29709 19.0795 3.29705 19.8912 4.10876C20.7028 4.9204 20.7029 6.23632 19.8913 7.04801L19 7.93946L16.0606 5.00012L16.9518 4.10884ZM15 6.06084L17.9394 9.00018L7.94119 18.9995C7.73104 19.2097 7.46668 19.3574 7.17755 19.4263L3.76191 20.2395L4.57521 16.8237C4.64402 16.5346 4.79168 16.2704 5.00175 16.0603L15 6.06084Z" fill="#212121"/>
</svg>

<svg xmlns="http://www.w3.org/2000/svg" width="24" height="24"><path d="M20.952 3.048a3.578 3.578 0 0 0-5.06 0L3.94 15a3.106 3.106 0 0 0-.825 1.476L2.02 21.078a.75.75 0 0 0 .904.903l4.601-1.096a3.106 3.106 0 0 0 1.477-.825l11.95-11.95a3.578 3.578 0 0 0 0-5.06Zm-4 1.06a2.078 2.078 0 1 1 2.94 2.94L19 7.939 16.06 5l.892-.891ZM15 6.062 17.94 9l-10 10c-.21.21-.474.357-.763.426l-3.416.814.813-3.416c.069-.29.217-.554.427-.764L15 6.06Z"/></svg>
